svg/Outline/calendar-number.svg

<svg viewBox="0 0 24 24" xmlns="http://www.w3.org/2000/svg" width="24" height="24"><path d="M9.55 10.2c1.5 0 2.5.73 2.5 1.86 0 .89-.64 1.48-1.47 1.65v.03c1.05.1 1.73.7 1.73 1.68 0 1.28-1.11 2.13-2.75 2.13-1.34 0-2.16-.58-2.5-1.27a1 1 0 0 1-.1-.47c0-.38.24-.62.64-.62.3 0 .48.12.63.39.24.49.63.78 1.36.78.72 0 1.22-.42 1.22-1 0-.69-.5-1.07-1.35-1.07h-.31c-.36 0-.56-.2-.56-.52 0-.31.2-.53.56-.53h.29c.73 0 1.21-.4 1.21-.97s-.38-.95-1.1-.95c-.59 0-.95.25-1.18.75-.16.33-.33.46-.66.46-.41 0-.62-.24-.62-.6q0-.24.1-.47c.32-.7 1.12-1.27 2.36-1.27m6.08.05c.52 0 .83.32.83.83v5.69c0 .44-.29.74-.72.74a.7.7 0 0 1-.74-.74V11.7h-.03l-1.03.72a.6.6 0 0 1-.39.13.5.5 0 0 1-.51-.52q-.02-.34.31-.55l1.4-.97c.34-.24.58-.28.88-.28"/><path fill-rule="evenodd" d="M16.17.85c.5 0 .9.4.9.9v.53a4.9 4.9 0 0 1 4.4 4.87v9.15c0 2.7-2.2 4.9-4.9 4.9H7.43a4.9 4.9 0 0 1-4.9-4.9V7.15a4.9 4.9 0 0 1 4.42-4.87v-.53a.9.9 0 0 1 1.8 0v.5h6.52v-.5c0-.5.4-.9.9-.9M4.33 16.3a3.1 3.1 0 0 0 3.1 3.1h9.14a3.1 3.1 0 0 0 3.1-3.1V8.4H4.33zM8.75 4.56a.9.9 0 0 1-1.8 0v-.47a3.1 3.1 0 0 0-2.57 2.5h15.24a3.1 3.1 0 0 0-2.55-2.5v.47a.9.9 0 0 1-1.8 0v-.5H8.75z" clip-rule="evenodd"/></svg>

<svg viewBox="0 0 24 24" xmlns="http://www.w3.org/2000/svg" width="24" height="24"><path d="M9.55 10.2c1.5 0 2.5.73 2.5 1.86 0 .89-.64 1.48-1.47 1.65v.03c1.05.1 1.73.7 1.73 1.68 0 1.28-1.11 2.13-2.75 2.13-1.34 0-2.16-.58-2.5-1.27a1 1 0 0 1-.1-.47c0-.38.24-.62.64-.62.3 0 .48.12.63.39.24.49.63.78 1.36.78.72 0 1.22-.42 1.22-1 0-.69-.5-1.07-1.35-1.07h-.31c-.36 0-.56-.2-.56-.52 0-.31.2-.53.56-.53h.29c.73 0 1.21-.4 1.21-.97s-.38-.95-1.1-.95c-.59 0-.95.25-1.18.75-.16.33-.33.46-.66.46-.41 0-.62-.24-.62-.6q0-.24.1-.47c.32-.7 1.12-1.27 2.36-1.27M15.63 10.24C16.15 10.24 16.46 10.56 16.46 11.07L16.46 16.76C16.46 17.2 16.17 17.5 15.74 17.5A.7 .7 0 0 1 15 16.76L14.97 11.7L13.94 12.42A.6 .6 0 0 1 13.55 12.55A.5 .5 0 0 1 13.04 12.03Q13.02 11.69 13.35 11.48L14.75 10.51C15.09 10.27 15.33 10.23 15.63 10.23"/><path fill-rule="evenodd" d="M16.17.85c.5 0 .9.4.9.9v.53a4.9 4.9 0 0 1 4.4 4.87v9.15c0 2.7-2.2 4.9-4.9 4.9H7.43a4.9 4.9 0 0 1-4.9-4.9V7.15a4.9 4.9 0 0 1 4.42-4.87v-.53a.9.9 0 0 1 1.8 0v.5h6.52v-.5c0-.5.4-.9.9-.9M4.33 16.3a3.1 3.1 0 0 0 3.1 3.1h9.14a3.1 3.1 0 0 0 3.1-3.1V8.4H4.33zM8.75 4.56a.9.9 0 0 1-1.8 0v-.47a3.1 3.1 0 0 0-2.57 2.5h15.24a3.1 3.1 0 0 0-2.55-2.5v.47a.9.9 0 0 1-1.8 0v-.5H8.75z" clip-rule="evenodd"/></svg>
